svg/u1f4de.svg

<svg viewBox="0 0 128 128" xmlns="http://www.w3.org/2000/svg">
  <g>
    <path d="M4.15,28.01C3.16,37.7,6.46,63.52,35.47,92.53s54.83,32.31,64.52,31.32s16.08-6.97,20.29-11.6 c0.23-0.26,0.57-0.66,0.92-1.16c2.43-3.45,3.65-6.46-8.41-18.52c-12.87-12.87-19.08-8.83-21.82-7.02c0,0-3.97,3.21-5.89,4.41 c-1.25,0.78-2.52,1.29-4.3,1.29c-3.37,0.01-9.38,1.91-26.01-14.2c-0.66-0.66-1.28-1.3-1.89-1.93c-0.63-0.6-1.27-1.22-1.93-1.89 C34.83,56.6,36.73,50.6,36.74,47.22c0-1.78,0.51-3.05,1.29-4.3c1.2-1.91,4.41-5.89,4.41-5.89c1.81-2.74,5.85-8.95-7.02-21.82 C23.37,3.16,20.35,4.38,16.9,6.81c-0.5,0.35-0.9,0.68-1.16,0.92C11.12,11.93,5.13,18.33,4.15,28.01z" fill="#424242"/>
    <path d="M109.96,94.65c12.57,12.61,9.07,18.98,9.07,18.98c2.6-1.03,11.75-7.94-4.18-23.86 s-22.86-6.8-23.89-4.2C90.96,85.56,97.35,82.07,109.96,94.65z" fill="#616161"/>
    <path d="M18.66,50.03c2.52,6.06,8.75,19,24.53,34.78s28.72,22.01,34.78,24.53c1.99,0.83,4.04-0.96,3.52-3.06 c-0.96-3.92-1.16-9.78,3.22-15.72c0.15-0.2,0.25-0.4,0.36-0.61c0,0-2.23,1.33-4.29,1.3c-3.25-0.05-10.55,1.16-27.87-16.16 S36.79,50.47,36.74,47.22c-0.03-2.06,1.3-4.29,1.3-4.29c-0.2,0.1-0.41,0.21-0.61,0.36c-5.94,4.37-11.8,4.18-15.72,3.22 C19.62,46,17.83,48.04,18.66,50.03z" fill="#616161"/>
    <path d="M33.35,18.04C20.74,5.46,14.37,8.97,14.37,8.97c1.03-2.6,7.94-11.75,23.86,4.18s6.8,22.86,4.2,23.89 C42.44,37.04,45.93,30.65,33.35,18.04z" fill="#616161"/>
    <path d="M20.59,5.74c-0.48,0.75-0.49,1.52,0.13,2.15c0.58,0.59,3.13,1.27,5.46,2.28 c2.39,1.04,3.73,2.43,4.96,2.43c0.77,0,1.6-0.25,2.02-0.9c0.4-0.62,0.34-1.45,0.02-2.11c-0.32-0.66-0.86-1.19-1.43-1.66 C29.44,6,22.97,2.02,20.59,5.74z" fill="#757575"/>
    <path d="M9.71,34.87c-1.12-3.66-0.72-8.65,0.53-12.59c1.84-5.8,4.73-7.08,6.13-7.01 c1.74,0.09,3.27,1.3,2.95,3.67c-0.24,1.74-1.73,3.31-3.21,5.04c-2.57,3.01-3.33,7-4.36,10.71C11.32,36.27,10.09,36.1,9.71,34.87z" fill="#616161"/>
    <path d="M115.16,97.52c3.09,4.11,4.22,5.43,5.17,5.9c1.45,0.71,2.3-0.23,2.42-1.13 c0.09-0.68-0.09-1.36-0.33-2c-0.96-2.64-2.76-5.58-5.02-7.32c-1.09-0.84-2.36-0.84-3.11,0.48 C113.52,94.83,114.32,96.4,115.16,97.52z" fill="#757575"/>
    <path d="M104.99,113.57c2.05-1.52,3.78-3.44,5.82-4.98c0.7-0.53,1.61-1.03,2.41-0.68 c0.75,0.32,1.41,1.65,1.22,3.11c-0.63,4.96-7,7.75-10.26,8.4c-4.25,0.85-9.69,0.32-9.48-1.03c0.16-1.06,2.31-1.01,5.17-2.1 C101.68,115.6,103.43,114.73,104.99,113.57z" fill="#616161"/>
  </g>
</svg>

<svg viewBox="0 0 128 128" xmlns="http://www.w3.org/2000/svg">
  <defs/>
  <path d="M4.15,28.01 C3.16,37.7 6.46,63.52 35.47,92.53 C64.48,121.54 90.3,124.84 99.99,123.85 C109.68,122.86 116.07,116.88 120.28,112.25 C120.51,111.99 120.85,111.59 121.2,111.09 C123.63,107.64 124.85,104.63 112.79,92.57 C99.92,79.7 93.71,83.74 90.97,85.55 C90.97,85.55 87,88.76 85.08,89.96 C83.83,90.74 82.56,91.25 80.78,91.25 C77.41,91.26 71.4,93.16 54.77,77.05 C54.11,76.39 53.49,75.75 52.88,75.12 C52.25,74.52 51.61,73.9 50.95,73.23 C34.83,56.6 36.73,50.6 36.74,47.22 C36.74,45.44 37.25,44.17 38.03,42.92 C39.23,41.01 42.44,37.03 42.44,37.03 C44.25,34.29 48.29,28.08 35.42,15.21 C23.37,3.16 20.35,4.38 16.9,6.81 C16.4,7.16 16,7.49 15.74,7.73 C11.12,11.93 5.13,18.33 4.15,28.01 Z" fill="#424242"/>
  <path d="M109.96,94.65 C122.53,107.26 119.03,113.63 119.03,113.63 C121.63,112.6 130.78,105.69 114.85,89.77 C98.92,73.85 91.99,82.97 90.96,85.57 C90.96,85.56 97.35,82.07 109.96,94.65 Z" fill="#616161"/>
  <path d="M18.66,50.03 C21.18,56.09 27.41,69.03 43.19,84.81 C58.97,100.59 71.91,106.82 77.97,109.34 C79.96,110.17 82.01,108.38 81.49,106.28 C80.53,102.36 80.33,96.5 84.71,90.56 C84.86,90.36 84.96,90.16 85.07,89.95 C85.07,89.95 82.84,91.28 80.78,91.25 C77.53,91.2 70.23,92.41 52.91,75.09 C35.59,57.77 36.79,50.47 36.74,47.22 C36.71,45.16 38.04,42.93 38.04,42.93 C37.84,43.03 37.63,43.14 37.43,43.29 C31.49,47.66 25.63,47.47 21.71,46.51 C19.62,46 17.83,48.04 18.66,50.03 Z" fill="#616161"/>
  <path d="M33.35,18.04 C20.74,5.46 14.37,8.97 14.37,8.97 C15.4,6.37 22.31,-2.78 38.23,13.15 C54.15,29.08 45.03,36.01 42.43,37.04 C42.44,37.04 45.93,30.65 33.35,18.04 Z" fill="#616161"/>
  <path d="M20.59,5.74 C20.11,6.49 20.1,7.26 20.72,7.89 C21.3,8.48 23.85,9.16 26.18,10.17 C28.57,11.21 29.91,12.6 31.14,12.6 C31.91,12.6 32.74,12.35 33.16,11.7 C33.56,11.08 33.5,10.25 33.18,9.59 C32.86,8.93 32.32,8.4 31.75,7.93 C29.44,6 22.97,2.02 20.59,5.74 Z" fill="#757575"/>
  <path d="M9.71,34.87 C8.59,31.21 8.99,26.22 10.24,22.28 C12.08,16.48 14.97,15.2 16.37,15.27 C18.11,15.36 19.64,16.57 19.32,18.94 C19.08,20.68 17.59,22.25 16.11,23.98 C13.54,26.99 12.78,30.98 11.75,34.69 C11.32,36.27 10.09,36.1 9.71,34.87 Z" fill="#616161"/>
  <path d="M115.16,97.52 C118.25,101.63 119.38,102.95 120.33,103.42 C121.78,104.13 122.63,103.19 122.75,102.29 C122.84,101.61 122.66,100.93 122.42,100.29 C121.46,97.65 119.66,94.71 117.4,92.97 C116.31,92.13 115.04,92.13 114.29,93.45 C113.52,94.83 114.32,96.4 115.16,97.52 Z" fill="#757575"/>
  <path d="M104.99,113.57 C107.04,112.05 108.77,110.13 110.81,108.59 C111.51,108.06 112.42,107.56 113.22,107.91 C113.97,108.23 114.63,109.56 114.44,111.02 C113.81,115.98 107.44,118.77 104.18,119.42 C99.93,120.27 94.49,119.74 94.7,118.39 C94.86,117.33 97.01,117.38 99.87,116.29 C101.68,115.6 103.43,114.73 104.99,113.57 Z" fill="#616161"/>
</svg>
